Adwaita++/actions/22/distribute-vertical-bottom.svg

<svg height="22" viewBox="0 0 22 22" width="22" xmlns="http://www.w3.org/2000/svg">
  <path d="m2.9960938.00390625v4.99999995h-2.00000005v2h14.00000025v-2h-2v-4.99999995h-4.0000002v4.99999995h-2v-4.99999995zm0 8.99999995v4.9999998h-2.00000005v2h14.00000025v-2h-2v-4.9999998h-4.0000002v4.9999998h-2v-4.9999998z" fill="#444" transform="translate(3 3)"/>
</svg>

<svg xmlns="http://www.w3.org/2000/svg" width="22" height="22" viewBox="0 0 22 22">
 <defs>
  <style id="current-color-scheme" type="text/css">
   .ColorScheme-Text { color:#444444; } .ColorScheme-Highlight { color:#4285f4; }
  </style>
 </defs>
 <path style="fill:currentColor" class="ColorScheme-Text" d="M 2.9960938 0.00390625 L 2.9960938 5.0039062 L 0.99609375 5.0039062 L 0.99609375 7.0039062 L 14.996094 7.0039062 L 14.996094 5.0039062 L 12.996094 5.0039062 L 12.996094 0.00390625 L 8.9960938 0.00390625 L 8.9960938 5.0039062 L 6.9960938 5.0039062 L 6.9960938 0.00390625 L 2.9960938 0.00390625 z M 2.9960938 9.0039062 L 2.9960938 14.003906 L 0.99609375 14.003906 L 0.99609375 16.003906 L 14.996094 16.003906 L 14.996094 14.003906 L 12.996094 14.003906 L 12.996094 9.0039062 L 8.9960938 9.0039062 L 8.9960938 14.003906 L 6.9960938 14.003906 L 6.9960938 9.0039062 L 2.9960938 9.0039062 z" transform="translate(3 3)"/>
</svg>
